X: 20844
T: Johnny's Welcome Home
R: reel
M: 4/4
K: Adorian
AE ~E2 cE ~E2|GEAE G2 ED|(3EFG AB cded|~c3 d e2 fg|
~a3 f ~g3 e|dBGB ABcd|(3efg ed cABG|1 AGEG ABcB:|2
AGEG A2 ea||agea agea|agef g2 fg|agbg aged|
~c3 d e2 fg|~a3 f ~g3 e|dBGB ABcd|(3efg ed cABG
[1 AGEG A2 ea:|2 AGEG ABcB||

